X: 48
T:Hector the Hero
M:3/4
L:1/8
C:Scott Skinner
K:A
A2B2|:c3 BA2|f4ec|e4-ef|e4AB|\
c4BA|f4ec|B4-Bc|B4ce|
c3 BA2|f4ec|e4A2|a4f2|\
e4Ac|B4A2|A6 -|[1 A2A2B2:|[2 A2c2e2||
|:f4df|a4gf|e4-ef|e4ce|\
f4ec|e4Ac|B4-Bc|B4ce|
f4df|a4gf|e4dc|a4d2|\
c4Ac|B4A2|A6 -|[1 A2c2e2:|[2 A2 z2|
